X:101
T:Margate Assembly. THO5.101
M:6/8
L:1/8
B:Thompson's Complete Collection of 200 Favourite Dances Vol.5
F:https://www.libraryofdance.org/manuals/1780c-Thompson-Compleat-5.pdf
Z:vmp. Peter Dunk 2024
Q:3/8=100
K:G
G2 G D2D|TEDE D3|cde dcB|ABG FED|
G2G D2D|TEDE D3|cde dcB|AGF G3:|
|:g2g b2g|f2f a2f|efg fed|^ced cBA|
g2g b2g|f2f a2f|e2g fed|ed^c d3|
ec2-cde|dB2- Bcd|cA2- ABc|BAG FED|
G2G D2D|EDE D3|cde dcB|AGF G3:|
W:
W:Turn right hands round, left hands back again
W:lead down two Couples, up again ./.
W:Set contrary corners and then turn your partner ./:
W:Set 3 & 3, top and bottom, then sideways, right and left :/:

